X: 1534
T: Oh Güzel Kız
C: Sadettin Kaynak
O: Turkey
F: http://compmusic.upf.edu/node/140
N: karcigar--sarki--duyek--oh_guzel_kiz--sadettin_kaynak
N: makam= karcigar
N: form= sarki
N: usul= duyek = 8/4
M: 8/4
L: 1/16
K: C _2/4B _3/4e ^3/4f 
Q: 1/4=120
%%MIDI tuningsystem comma53
z2 A2 _1/4B2 c2 d2 _7/8e2 ^f2 g2  | \
w:   | 
a2 c'2 _b2 a2 b2 a2 c'2 ba  | _b12 b2 c'2  | \
w:   |   | 
c'_b a2 z2 a2 g2 a2 b2 ba  | 
w:   | 
g2 z2 g2 g2 ^f2 g2 a2 ag  | ^f2 z4 gf _7/8e2 z4 fe  | \
w:   |   | 
d2 _7/8ed c2 dc _1/4B2 cB A2 z2  | 
w:   | 
A2 _1/4B2 c2 d2 =f2 =e2 d2 c2  | _1/4B2 B2 A2 A4 z4 z2  | \
w:   |   | 
d4 d2 d4 d4 d2  | ^f2 _7/8e2 d2 c2 _1/4B2 c2 z2 A2  | 
w:   |   | 
_1/4B4 c2 d4 z4 A2  | c2 _1/4B2 A2 A4 z4 z2  | \
w:   |   | 
_7/8e6 e4 e2 e2 d2  | g2 ^f2 _7/8e2 d2 c2 d4 z4 A2 _1/4B2 c4 d4 A2  | 
w:   |   | 
c2 _1/4B2 A2 A4 z4 z2  | A2 _1/4B2 c2 d2 _7/8e2 ^f2 g2 a2  | \
w:   |   | 
c'2 _b2 a2 b2 a2 c'2 ba b12 b2 c'2 c'b  | 
w:   | 
a2 z2 a2 a2 g2 a2 _b2 ba  | g2 z2 g2 g2 ^f2 g2 a2 ag  | \
w:   |   | 
^f2 z4 gf _7/8e2 z4 fe  | 
w:   | 
d2 _7/8ed c2 dc _1/4B2 cB A2 z2  | \
w:   | 
g2 a2 g2 ^f2 =e2 d2 e2 f2  | g2 _1/4b2 a2 c'2 b3a g4  | 
w:   |   | 
z4 g2 g2 g4 g4  | g2 ^f2 =e2 d2 f2 g2 a4  | \
w:   |   | 
a2 a2 g2 a2 g4 z4  | g2 _1/4b2 a2 b2 a4 g4  | 
w:   |   | 
z2 ^f2 g2 f2 =e2 e2 d2 d4 z4 g2 g2 g4 g4 g2 f2 e2 d2 f2 g2 a4 a2 a2 g2 a2 g4 z4 g2 _1/4b2 a2 b2 a4 g4 z2 f2 g2 f2 e2 e2 d2  | 
w:   | 
d4 d2 =e4 d2 c4  | =e4 z2 d2 _7/8e2 d2 c2 _1/4B4 d4 B2 c4 B2 A4 c4 z2 B4 A2 G4 d4 =e4 ^f4 g4 a4 g16 z2 g2 f2 e2 d2  | 
w:   |   | 
c2 _1/4B2 A2 G2 A4 c2 B2  | A2 G4 z2 d4 d2 d4 d4 d2 ^f2 _7/8e2 d2 c2  | \
w:   |   | 
_1/4B2 c2 z2 A2 B4 c2 d4 z4 A2 c2 B2 A2 A4 z4 z2 _7/8e6 e4 e2 e2 z2 g2 ^f2 e2 d2  | 
w:   | 
c2 d4 z4 A2 _1/4B2 c4 d4 A2 c2 B2 A2 A4 z4 z2 d2 d2 d2 g2  | \
w:   | 
^f2 g2 a2 z2 f2 =e2 g2 f3e d4 z2 g2 f2 g2 a4 z4 z2 d6 g2  | 
w:   | 
^f2 g2 a2 a2 a4 a2 g2  | ^f2 =e2 d2 z2 g2 f2 g2 a4 =fe d2 z2 _1/4B2 A2 G2 A4 z4 z2 d4 ^f2 _7/8e2  | 
w:   |   | 
d2 c2 d2 z2 g2 ^f2 _7/8e2 d2  | c2 d2 z2 z2 d4 ^f2 _7/8e2  | \
w:   |   | 
d2 c2 d2 z2 g2 ^f2 _7/8e2 d2  | 
w:   | 
c2 d2 z2 z2 g4 g2 g2  | ^f2 g4 z2 g4 _b2 a2  | \
w:   |   | 
g2 ^f2 _7/8e2 d2 d4 d2 d4 d4 d2 f2 e2 d2 c2  | 
w:   | 
_1/4B2 c2 z2 A2 B4 c2 z4 A2 c2 B2 A2 A4 z4 z2 _7/8e6 e4 e2  | \
w:   | 
_7/8e2 d2 g2 ^f2 e2 d2 c2 d2  | 
w:   | 
z2 z2 _7/8e6 e4 e2  | _7/8e2 d2 g2 ^f2 e2 d2 c2 d2  | \
w:   |   | 
z2 z4 A2 _1/4B2 c4 d2  | z2 A2 c2 _1/4B2 A2 A4 d3/2c/  | 
w:   |   | 
d2 z4 A2 _1/4B2 c4 d2  | z2 A2 c2 _1/4B2 A2 A4 A4 |
w:   |   | 


